!!!OTL: Robin Hood's Progress to Nottingham
!!!ONM: 7.
**kern
*clefG2
*k[b-e-a-d-]
*A-:
*M6/8
*MM80
{16A-
16A-
=1
4c
8d-
4e-
8c
=2
8B-
8c
8c
4A-}
{16e-
16e-
=3
4.a-
8g
8e-
8f
=4
4.e-
4r}
{8e-
=5
4a-
8a-
(8f
8g)
8a-
=6
4e-
8c
16B-
16B-
8A-
8B-
=7
4c
8d-
(8e-
8d-)
8c
=8
4B-}
=||
{8A-
4e-
8f
=9
8e-
4d-
8B-
4c
=10
4.A-
8r
8r}
==
*-
!!!CNT: Folksongs of Maritime Canada
!!!MRD: 1928///-1932///
!!!OCL: Helen Creighton
!!!YOR: Songs and Ballads from Nova Scotia
!!!PPR: J.M. Dent & Sons, Limited
!!!PPP: Toronto, Canada
!!!PDT: 1932///
!!!reprint: Dover Publications, 1992: ISBN 0-486-21703-5
!!!ENC1: Craig Stuart Sapp (music and bibliographic data)                       
!!!ENC2: Marcus Pearce (phrase markings and key designations)                   
!!!ENC3: Darrell Conklin (phrase markings and key designations)   
!!!END: 2002/04/10/
!!!EEV: 2004/06/05
!!!MPN: Mr. Ben Henneberry
!!!PPG: 15
!!!EFL: 7/152
!!!ARE: Canada; Nova Scotia
!!!verses: 3
!!!VTS: 2107015962
